P3
# Simple floor grid texture for CG1 project
8 8
255
180 180 180   180 180 180   80 80 80      180 180 180   180 180 180   80 80 80      180 180 180   180 180 180
180 180 180   180 180 180   80 80 80      180 180 180   180 180 180   80 80 80      180 180 180   180 180 180
80 80 80      80 80 80      40 40 40      80 80 80      80 80 80      40 40 40      80 80 80      80 80 80
180 180 180   180 180 180   80 80 80      180 180 180   180 180 180   80 80 80      180 180 180   180 180 180
180 180 180   180 180 180   80 80 80      180 180 180   180 180 180   80 80 80      180 180 180   180 180 180
80 80 80      80 80 80      40 40 40      80 80 80      80 80 80      40 40 40      80 80 80      80 80 80
180 180 180   180 180 180   80 80 80      180 180 180   180 180 180   80 80 80      180 180 180   180 180 180
180 180 180   180 180 180   80 80 80      180 180 180   180 180 180   80 80 80      180 180 180   180 180 180
