P3
# Simple wall brick texture for CG1 project
8 8
255
120 80 60    120 80 60    80 50 40     120 80 60    120 80 60    80 50 40     120 80 60    120 80 60
120 80 60    120 80 60    80 50 40     120 80 60    120 80 60    80 50 40     120 80 60    120 80 60
60 40 35     60 40 35     60 40 35     60 40 35     60 40 35     60 40 35     60 40 35     60 40 35
120 80 60    80 50 40     120 80 60    120 80 60    80 50 40     120 80 60    120 80 60    80 50 40
120 80 60    80 50 40     120 80 60    120 80 60    80 50 40     120 80 60    120 80 60    80 50 40
60 40 35     60 40 35     60 40 35     60 40 35     60 40 35     60 40 35     60 40 35     60 40 35
120 80 60    120 80 60    80 50 40     120 80 60    120 80 60    80 50 40     120 80 60    120 80 60
120 80 60    120 80 60    80 50 40     120 80 60    120 80 60    80 50 40     120 80 60    120 80 60
